X:704
T:THE WALLS OF LISCARROLL
M:6/8
L:1/8
B:O'NEILL'S 704
N:"collected by Carey"
Z:Transcribed by A. LEE WORMAN
K:D
A|dcA AGE|GEE D2 E|GEE cEE|GAB c2 e|
dcA AGE|GEE D2 E|GEE cEE|DED D2:|
||A|dcd ecA|dcd ecA|c[Bd]c cBA|GAB cGE|
Ade fed|fedc dcA|GEE cEE|DED D2:|
